; generated by PrusaSlicer 2.5.2+win64 on 2023-04-06 at 12:15:02 UTC


;
;
; 

; external perimeters extrusion width = 0.45mm
; perimeters extrusion width = 0.45mm
; infill extrusion width = 0.45mm
; solid infill extrusion width = 0.45mm
; top infill extrusion width = 0.40mm
; first layer extrusion width = 0.42mm

M73 P0 R29
M73 Q0 S29
M201 X1000 Y1000 Z200 E5000 ; sets maximum accelerations, mm/sec^2
M203 X200 Y200 Z12 E120 ; sets maximum feedrates, mm / sec
M204 P1250 R1250 T1250 ; sets acceleration (P, T) and retract acceleration (R), mm/sec^2
M205 X8.00 Y8.00 Z0.40 E4.50 ; sets the jerk limits, mm/sec
M205 S0 T0 ; sets the minimum extruding and travel feed rate, mm/sec
M107
;TYPE:Custom
M862.3 P "MK3S" ; printer model check
M862.1 P0.4 ; nozzle diameter check
M115 U3.12.1 ; tell printer latest fw version
G90 ; use absolute coordinates
M83 ; extruder relative mode
M104 S215 ; set extruder temp
M140 S60 ; set bed temp
M190 S60 ; wait for bed temp
M109 S215 ; wait for extruder temp
G28 W ; home all without mesh bed level
G80 ; mesh bed leveling

G1 Z0.2 F720
G1 Y-3 F1000 ; go outside print area
G92 E0
G1 X60 E9 F1000 ; intro line
G1 X100 E12.5 F1000 ; intro line

G92 E0
M221 S95

; Don't change E values below. Excessive value can damage the printer.
M907 E430 ; set extruder motor current
G21 ; set units to millimeters
G90 ; use absolute coordinates
M83 ; use relative distances for extrusion
M900 K0.05 ; Filament gcode LA 1.5
M900 K30 ; Filament gcode LA 1.0
M107
;LAYER_CHANGE
;Z:0.2
;HEIGHT:0.2
;BEFORE_LAYER_CHANGE
G92 E0.0
;0.2


G1 E-.8 F2100
G1 Z.4 F720
;AFTER_LAYER_CHANGE
;0.2
G1 X103.626 Y90.526 F10800
G1 Z.2 F720
G1 E.8 F2100
M204 S800
;TYPE:Skirt/Brim
;WIDTH:0.42
G1 F1200
G1 X104.671 Y89.65 E.04278
G1 X105.611 Y89.456 E.03008
G1 X144.389 Y89.456 E1.21585
G1 X145.696 Y89.848 E.04278
G1 X146.572 Y90.894 E.04278
G1 X146.766 Y91.833 E.03008
G1 X146.766 Y118.167 E.82566
G1 X146.374 Y119.474 E.04278
G1 X145.329 Y120.35 E.04278
G1 X144.389 Y120.544 E.03008
G1 X105.611 Y120.544 E1.21585
G1 X104.304 Y120.152 E.04278
G1 X103.428 Y119.106 E.04278
G1 X103.234 Y118.167 E.03008
G1 X103.234 Y91.833 E.82566
G1 X103.608 Y90.584 E.0409
M204 S1000
; printing object Rectangle id:0 copy 0
;WIPE_START
G1 F8640
G1 X104.671 Y89.65 E-.32671
G1 X105.611 Y89.456 E-.22155
G1 X106.528 Y89.456 E-.21174
;WIPE_END
G1 E-.04 F2100
G1 Z.6 F720
G1 X143.602 Y117.38 F10800
G1 Z.2 F720
G1 E.8 F2100
M204 S800
;TYPE:Perimeter
;WIDTH:0.419999
G1 F1200
G1 X106.398 Y117.38 E1.16649
G1 X106.398 Y92.62 E.7763
M73 P0 R28
G1 X143.602 Y92.62 E1.16649
M73 P1 R28
M73 Q1 S29
G1 X143.602 Y117.32 E.77442
M204 S1000
G1 X143.979 Y117.757 F10800
M204 S800
;TYPE:External perimeter
G1 F1200
G1 X106.021 Y117.757 E1.19014
G1 X106.021 Y92.243 E.79995
G1 X143.979 Y92.243 E1.19014
G1 X143.979 Y117.697 E.79807
M204 S1000
G1 X143.587 Y117.678 F10800
;WIPE_START
G1 F8640
G1 X140.687 Y117.702 E-.76
;WIPE_END
G1 E-.04 F2100
G1 Z.6 F720
G1 X108.747 Y94.738 F10800
G1 Z.2 F720
M73 Q1 S28
G1 E.8 F2100
M204 S800
;TYPE:Perimeter
G1 F1200
G1 X108.798 Y94.548 E.00616
G1 X108.986 Y94.352 E.00853
G1 X109.288 Y94.265 E.00985
G1 X140.479 Y94.265 E.97796
G1 X140.803 Y94.367 E.01066
G1 X140.989 Y94.586 E.00902
G1 X141.044 Y94.83 E.00784
G1 X141.044 Y114.013 E.60146
G1 X140.987 Y114.26 E.00795
G1 X140.847 Y114.442 E.00722
G1 X140.576 Y114.57 E.00937
G1 X140.479 Y114.579 E.00308
G1 X109.288 Y114.579 E.97796
G1 X109.108 Y114.549 E.0057
G1 X108.955 Y114.47 E.00542
G1 X108.791 Y114.283 E.00779
G1 X108.722 Y114.013 E.00874
G1 X108.731 Y94.796 E.60254
M204 S1000
G1 X109.099 Y94.83 F10800
M204 S800
;TYPE:External perimeter
G1 F1200
G1 X109.187 Y94.671 E.00571
G1 X109.288 Y94.642 E.00328
G1 X140.479 Y94.642 E.97796
G1 X140.587 Y94.676 E.00355
M73 P2 R28
M73 Q2 S28
G1 X140.667 Y94.83 E.00546
G1 X140.667 Y114.013 E.60146
G1 X140.601 Y114.156 E.00494
G1 X140.479 Y114.201 E.0041
G1 X109.288 Y114.201 E.97796
G1 X109.177 Y114.165 E.00366
G1 X109.099 Y114.013 E.00536
G1 X109.099 Y94.89 E.59958
M204 S1000
G1 X108.98 Y94.692 F10800
;WIPE_START
G1 F8640
G1 X109.187 Y94.671 E-.0546
G1 X109.288 Y94.642 E-.02417
G1 X112.238 Y94.642 E-.68123
;WIPE_END
G1 E-.04 F2100
G1 Z.6 F720
G1 X143.489 Y93.499 F10800
G1 Z.2 F720
G1 E.8 F2100
M204 S800
;TYPE:Solid infill
;WIDTH:0.421595
G1 F1200
G1 X142.893 Y92.903 E.02654
G1 X142.357 Y92.903 E.01686
G1 X143.319 Y93.865 E.04283
G1 X143.319 Y94.401 E.01686
G1 X141.822 Y92.903 E.06668
G1 X141.286 Y92.903 E.01686
G1 X143.319 Y94.936 E.09052
G1 X143.319 Y95.472 E.01686
G1 X140.751 Y92.903 E.11437
G1 X140.215 Y92.903 E.01686
G1 X143.319 Y96.007 E.13822
G1 X143.319 Y96.543 E.01686
G1 X139.68 Y92.903 E.16206
G1 X139.144 Y92.903 E.01686
G1 X140.223 Y93.982 E.04803
G1 X139.687 Y93.982 E.01686
G1 X138.609 Y92.903 E.04803
G1 X138.073 Y92.903 E.01686
G1 X139.152 Y93.982 E.04803
G1 X138.616 Y93.982 E.01686
G1 X137.537 Y92.903 E.04803
G1 X137.002 Y92.903 E.01686
G1 X138.08 Y93.982 E.04803
G1 X137.545 Y93.982 E.01686
G1 X136.466 Y92.903 E.04803
G1 X135.931 Y92.903 E.01686
G1 X137.009 Y93.982 E.04803
G1 X136.474 Y93.982 E.01686
G1 X135.395 Y92.903 E.04803
G1 X134.86 Y92.903 E.01686
G1 X135.938 Y93.982 E.04803
G1 X135.403 Y93.982 E.01686
G1 X134.324 Y92.903 E.04803
G1 X133.789 Y92.903 E.01686
G1 X134.867 Y93.982 E.04803
G1 X134.332 Y93.982 E.01686
G1 X133.253 Y92.903 E.04803
G1 X132.718 Y92.903 E.01686
G1 X133.796 Y93.982 E.04803
G1 X133.261 Y93.982 E.01686
G1 X132.182 Y92.903 E.04803
G1 X131.647 Y92.903 E.01686
G1 X132.725 Y93.982 E.04803
G1 X132.19 Y93.982 E.01686
G1 X131.111 Y92.903 E.04803
G1 X130.576 Y92.903 E.01686
G1 X131.654 Y93.982 E.04803
G1 X131.119 Y93.982 E.01686
G1 X130.04 Y92.903 E.04803
G1 X129.505 Y92.903 E.01686
G1 X130.583 Y93.982 E.04803
G1 X130.048 Y93.982 E.01686
G1 X128.969 Y92.903 E.04803
G1 X128.434 Y92.903 E.01686
G1 X129.512 Y93.982 E.04803
G1 X128.976 Y93.982 E.01686
G1 X127.898 Y92.903 E.04803
G1 X127.362 Y92.903 E.01686
G1 X128.441 Y93.982 E.04803
G1 X127.905 Y93.982 E.01686
G1 X126.827 Y92.903 E.04803
G1 X126.291 Y92.903 E.01686
G1 X127.37 Y93.982 E.04803
G1 X126.834 Y93.982 E.01686
G1 X125.756 Y92.903 E.04803
G1 X125.22 Y92.903 E.01686
G1 X126.299 Y93.982 E.04803
G1 X125.763 Y93.982 E.01686
G1 X124.685 Y92.903 E.04803
G1 X124.149 Y92.903 E.01686
G1 X125.228 Y93.982 E.04803
G1 X124.692 Y93.982 E.01686
G1 X123.614 Y92.903 E.04803
G1 X123.078 Y92.903 E.01686
G1 X124.157 Y93.982 E.04803
G1 X123.621 Y93.982 E.01686
G1 X122.543 Y92.903 E.04803
G1 X122.007 Y92.903 E.01686
G1 X123.086 Y93.982 E.04803
G1 X122.55 Y93.982 E.01686
G1 X121.472 Y92.903 E.04803
G1 X120.936 Y92.903 E.01686
G1 X122.015 Y93.982 E.04803
G1 X121.479 Y93.982 E.01686
G1 X120.401 Y92.903 E.04803
G1 X119.865 Y92.903 E.01686
G1 X120.944 Y93.982 E.04803
G1 X120.408 Y93.982 E.01686
G1 X119.33 Y92.903 E.04803
G1 X118.794 Y92.903 E.01686
G1 X119.873 Y93.982 E.04803
G1 X119.337 Y93.982 E.01686
G1 X118.258 Y92.903 E.04803
G1 X117.723 Y92.903 E.01686
G1 X118.801 Y93.982 E.04803
G1 X118.266 Y93.982 E.01686
G1 X117.187 Y92.903 E.04803
G1 X116.652 Y92.903 E.01686
G1 X117.73 Y93.982 E.04803
G1 X117.195 Y93.982 E.01686
G1 X116.116 Y92.903 E.04803
G1 X115.581 Y92.903 E.01686
G1 X116.659 Y93.982 E.04803
G1 X116.124 Y93.982 E.01686
G1 X115.045 Y92.903 E.04803
G1 X114.51 Y92.903 E.01686
G1 X115.588 Y93.982 E.04803
G1 X115.053 Y93.982 E.01686
G1 X113.974 Y92.903 E.04803
G1 X113.439 Y92.903 E.01686
G1 X114.517 Y93.982 E.04803
G1 X113.982 Y93.982 E.01686
G1 X112.903 Y92.903 E.04803
G1 X112.368 Y92.903 E.01686
G1 X113.446 Y93.982 E.04803
G1 X112.911 Y93.982 E.01686
G1 X111.832 Y92.903 E.04803
G1 X111.297 Y92.903 E.01686
G1 X112.375 Y93.982 E.04803
G1 X111.84 Y93.982 E.01686
G1 X110.761 Y92.903 E.04803
G1 X110.226 Y92.903 E.01686
G1 X111.304 Y93.982 E.04803
G1 X110.769 Y93.982 E.01686
G1 X109.69 Y92.903 E.04803
G1 X109.155 Y92.903 E.01686
G1 X110.233 Y93.982 E.04803
G1 X109.698 Y93.982 E.01686
G1 X108.619 Y92.903 E.04803
G1 X108.083 Y92.903 E.01686
G1 X109.172 Y93.991 E.04846
G1 X108.832 Y94.112 E.01135
G1 X108.795 Y94.15 E.00168
G1 X107.548 Y92.903 E.05553
G1 X107.012 Y92.903 E.01686
G1 X108.542 Y94.433 E.06812
G1 X108.439 Y94.866 E.014
G1 X106.681 Y93.107 E.0783
G1 X106.681 Y93.643 E.01686
G1 X108.439 Y95.401 E.0783
G1 X108.439 Y95.937 E.01686
G1 X106.681 Y94.178 E.0783
G1 X106.681 Y94.714 E.01686
G1 X108.439 Y96.472 E.0783
G1 X108.439 Y97.008 E.01686
G1 X106.681 Y95.249 E.0783
G1 X106.681 Y95.785 E.01686
G1 X108.439 Y97.543 E.0783
G1 X108.439 Y98.079 E.01686
G1 X106.681 Y96.32 E.0783
G1 X106.681 Y96.856 E.01686
G1 X108.439 Y98.614 E.0783
G1 X108.439 Y99.15 E.01686
G1 X106.681 Y97.392 E.0783
G1 X106.681 Y97.927 E.01686
G1 X108.439 Y99.686 E.0783
G1 X108.439 Y100.221 E.01686
G1 X106.681 Y98.463 E.0783
G1 X106.681 Y98.998 E.01686
G1 X108.439 Y100.757 E.0783
G1 X108.439 Y101.292 E.01686
G1 X106.681 Y99.534 E.0783
G1 X106.681 Y100.069 E.01686
G1 X108.439 Y101.828 E.0783
G1 X108.439 Y102.363 E.01686
G1 X106.681 Y100.605 E.0783
G1 X106.681 Y101.14 E.01686
G1 X108.439 Y102.899 E.0783
G1 X108.439 Y103.434 E.01686
G1 X106.681 Y101.676 E.0783
G1 X106.681 Y102.211 E.01686
G1 X108.439 Y103.97 E.0783
G1 X108.439 Y104.505 E.01686
G1 X106.681 Y102.747 E.0783
G1 X106.681 Y103.282 E.01686
G1 X108.439 Y105.041 E.0783
G1 X108.439 Y105.576 E.01686
G1 X106.681 Y103.818 E.0783
G1 X106.681 Y104.353 E.01686
G1 X108.439 Y106.112 E.0783
G1 X108.439 Y106.647 E.01686
G1 X106.681 Y104.889 E.0783
G1 X106.681 Y105.424 E.01686
G1 X108.439 Y107.183 E.0783
G1 X108.439 Y107.718 E.01686
G1 X106.681 Y105.96 E.0783
G1 X106.681 Y106.496 E.01686
G1 X108.439 Y108.254 E.0783
G1 X108.439 Y108.789 E.01686
G1 X106.681 Y107.031 E.0783
G1 X106.681 Y107.567 E.01686
G1 X108.439 Y109.325 E.0783
G1 X108.439 Y109.861 E.01686
G1 X106.681 Y108.102 E.0783
G1 X106.681 Y108.638 E.01686
M73 Q3 S28
G1 X108.439 Y110.396 E.0783
M73 P3 R28
G1 X108.439 Y110.932 E.01686
G1 X106.681 Y109.173 E.0783
G1 X106.681 Y109.709 E.01686
G1 X108.439 Y111.467 E.0783
G1 X108.439 Y112.003 E.01686
G1 X106.681 Y110.244 E.0783
G1 X106.681 Y110.78 E.01686
G1 X108.439 Y112.538 E.0783
G1 X108.439 Y113.074 E.01686
G1 X106.681 Y111.315 E.0783
G1 X106.681 Y111.851 E.01686
G1 X108.609 Y113.779 E.08586
M204 S1000
;WIPE_START
G1 F8640
G1 X106.681 Y111.851 E-.62962
G1 X106.681 Y111.315 E-.12365
G1 X106.702 Y111.336 E-.00672
;WIPE_END
G1 E-.04 F2100
G1 Z.6 F720
G1 X141.157 Y94.917 F10800
G1 Z.2 F720
G1 E.8 F2100
M204 S800
G1 F1200
G1 X143.319 Y97.078 E.09626
G1 X143.319 Y97.614 E.01686
G1 X141.327 Y95.622 E.0887
G1 X141.327 Y96.157 E.01686
G1 X143.319 Y98.149 E.0887
G1 X143.319 Y98.685 E.01686
G1 X141.327 Y96.693 E.0887
G1 X141.327 Y97.228 E.01686
G1 X143.319 Y99.22 E.0887
G1 X143.319 Y99.756 E.01686
G1 X141.327 Y97.764 E.0887
G1 X141.327 Y98.299 E.01686
G1 X143.319 Y100.291 E.0887
G1 X143.319 Y100.827 E.01686
G1 X141.327 Y98.835 E.0887
G1 X141.327 Y99.37 E.01686
G1 X143.319 Y101.362 E.0887
G1 X143.319 Y101.898 E.01686
G1 X141.327 Y99.906 E.0887
G1 X141.327 Y100.442 E.01686
G1 X143.319 Y102.433 E.0887
G1 X143.319 Y102.969 E.01686
G1 X141.327 Y100.977 E.0887
G1 X141.327 Y101.513 E.01686
G1 X143.319 Y103.505 E.0887
G1 X143.319 Y104.04 E.01686
G1 X141.327 Y102.048 E.0887
G1 X141.327 Y102.584 E.01686
G1 X143.319 Y104.576 E.0887
G1 X143.319 Y105.111 E.01686
G1 X141.327 Y103.119 E.0887
G1 X141.327 Y103.655 E.01686
G1 X143.319 Y105.647 E.0887
G1 X143.319 Y106.182 E.01686
G1 X141.327 Y104.19 E.0887
G1 X141.327 Y104.726 E.01686
G1 X143.319 Y106.718 E.0887
G1 X143.319 Y107.253 E.01686
G1 X141.327 Y105.261 E.0887
G1 X141.327 Y105.797 E.01686
G1 X143.319 Y107.789 E.0887
G1 X143.319 Y108.324 E.01686
G1 X141.327 Y106.332 E.0887
G1 X141.327 Y106.868 E.01686
G1 X143.319 Y108.86 E.0887
G1 X143.319 Y109.395 E.01686
G1 X141.327 Y107.403 E.0887
G1 X141.327 Y107.939 E.01686
G1 X143.319 Y109.931 E.0887
G1 X143.319 Y110.466 E.01686
G1 X141.327 Y108.474 E.0887
G1 X141.327 Y109.01 E.01686
G1 X143.319 Y111.002 E.0887
G1 X143.319 Y111.537 E.01686
G1 X141.327 Y109.545 E.0887
G1 X141.327 Y110.081 E.01686
G1 X143.319 Y112.073 E.0887
G1 X143.319 Y112.608 E.01686
G1 X141.327 Y110.617 E.0887
G1 X141.327 Y111.152 E.01686
G1 X143.319 Y113.144 E.0887
G1 X143.319 Y113.68 E.01686
G1 X141.327 Y111.688 E.0887
G1 X141.327 Y112.223 E.01686
G1 X143.319 Y114.215 E.0887
G1 X143.319 Y114.751 E.01686
G1 X141.327 Y112.759 E.0887
G1 X141.327 Y113.294 E.01686
G1 X143.319 Y115.286 E.0887
G1 X143.319 Y115.822 E.01686
G1 X141.327 Y113.83 E.0887
G1 X141.314 Y114.162 E.01047
G1 X141.268 Y114.306 E.00476
G1 X143.319 Y116.357 E.09134
G1 X143.319 Y116.893 E.01686
G1 X141.055 Y114.629 E.10081
G1 X140.786 Y114.805 E.01013
G1 X140.715 Y114.824 E.00231
G1 X142.988 Y117.097 E.1012
G1 X142.452 Y117.097 E.01686
G1 X140.217 Y114.861 E.09954
G1 X139.681 Y114.861 E.01686
G1 X141.917 Y117.097 E.09954
G1 X141.381 Y117.097 E.01686
G1 X139.146 Y114.861 E.09954
G1 X138.61 Y114.861 E.01686
G1 X140.845 Y117.097 E.09954
G1 X140.31 Y117.097 E.01686
G1 X138.074 Y114.861 E.09954
G1 X137.539 Y114.861 E.01686
G1 X139.774 Y117.097 E.09954
G1 X139.239 Y117.097 E.01686
G1 X137.003 Y114.861 E.09954
G1 X136.468 Y114.861 E.01686
G1 X138.703 Y117.097 E.09954
G1 X138.168 Y117.097 E.01686
G1 X135.932 Y114.861 E.09954
G1 X135.397 Y114.861 E.01686
G1 X137.632 Y117.097 E.09954
G1 X137.097 Y117.097 E.01686
G1 X134.861 Y114.861 E.09954
G1 X134.326 Y114.861 E.01686
G1 X136.561 Y117.097 E.09954
G1 X136.026 Y117.097 E.01686
G1 X133.79 Y114.861 E.09954
G1 X133.255 Y114.861 E.01686
G1 X135.49 Y117.097 E.09954
G1 X134.955 Y117.097 E.01686
G1 X132.719 Y114.861 E.09954
G1 X132.184 Y114.861 E.01686
G1 X134.419 Y117.097 E.09954
G1 X133.884 Y117.097 E.01686
G1 X131.648 Y114.861 E.09954
G1 X131.113 Y114.861 E.01686
G1 X133.348 Y117.097 E.09954
G1 X132.813 Y117.097 E.01686
G1 X130.577 Y114.861 E.09954
G1 X130.042 Y114.861 E.01686
G1 X132.277 Y117.097 E.09954
G1 X131.741 Y117.097 E.01686
G1 X129.506 Y114.861 E.09954
G1 X128.971 Y114.861 E.01686
G1 X131.206 Y117.097 E.09954
G1 X130.67 Y117.097 E.01686
G1 X128.435 Y114.861 E.09954
G1 X127.899 Y114.861 E.01686
G1 X130.135 Y117.097 E.09954
G1 X129.599 Y117.097 E.01686
G1 X127.364 Y114.861 E.09954
G1 X126.828 Y114.861 E.01686
G1 X129.064 Y117.097 E.09954
G1 X128.528 Y117.097 E.01686
G1 X126.293 Y114.861 E.09954
G1 X125.757 Y114.861 E.01686
G1 X127.993 Y117.097 E.09954
G1 X127.457 Y117.097 E.01686
G1 X125.222 Y114.861 E.09954
G1 X124.686 Y114.861 E.01686
G1 X126.922 Y117.097 E.09954
G1 X126.386 Y117.097 E.01686
G1 X124.151 Y114.861 E.09954
G1 X123.615 Y114.861 E.01686
G1 X125.851 Y117.097 E.09954
G1 X125.315 Y117.097 E.01686
G1 X123.08 Y114.861 E.09954
G1 X122.544 Y114.861 E.01686
G1 X124.78 Y117.097 E.09954
G1 X124.244 Y117.097 E.01686
G1 X122.009 Y114.861 E.09954
G1 X121.473 Y114.861 E.01686
G1 X123.709 Y117.097 E.09954
G1 X123.173 Y117.097 E.01686
G1 X120.938 Y114.861 E.09954
G1 X120.402 Y114.861 E.01686
G1 X122.638 Y117.097 E.09954
G1 X122.102 Y117.097 E.01686
G1 X119.867 Y114.861 E.09954
G1 X119.331 Y114.861 E.01686
G1 X121.566 Y117.097 E.09954
G1 X121.031 Y117.097 E.01686
G1 X118.795 Y114.861 E.09954
G1 X118.26 Y114.861 E.01686
G1 X120.495 Y117.097 E.09954
G1 X119.96 Y117.097 E.01686
G1 X117.724 Y114.861 E.09954
G1 X117.189 Y114.861 E.01686
G1 X119.424 Y117.097 E.09954
M73 Q4 S28
G1 X118.889 Y117.097 E.01686
M73 P4 R28
G1 X116.653 Y114.861 E.09954
G1 X116.118 Y114.861 E.01686
G1 X118.353 Y117.097 E.09954
G1 X117.818 Y117.097 E.01686
G1 X115.582 Y114.861 E.09954
G1 X115.047 Y114.861 E.01686
G1 X117.282 Y117.097 E.09954
G1 X116.747 Y117.097 E.01686
G1 X114.511 Y114.861 E.09954
G1 X113.976 Y114.861 E.01686
G1 X116.211 Y117.097 E.09954
G1 X115.676 Y117.097 E.01686
G1 X113.44 Y114.861 E.09954
G1 X112.905 Y114.861 E.01686
G1 X115.14 Y117.097 E.09954
G1 X114.605 Y117.097 E.01686
G1 X112.369 Y114.861 E.09954
G1 X111.834 Y114.861 E.01686
G1 X114.069 Y117.097 E.09954
G1 X113.534 Y117.097 E.01686
G1 X111.298 Y114.861 E.09954
G1 X110.763 Y114.861 E.01686
G1 X112.998 Y117.097 E.09954
G1 X112.463 Y117.097 E.01686
G1 X110.227 Y114.861 E.09954
G1 X109.692 Y114.861 E.01686
G1 X111.927 Y117.097 E.09954
G1 X111.391 Y117.097 E.01686
G1 X106.681 Y112.386 E.20975
