; generated by PrusaSlicer 2.5.2+win64 on 2023-04-20 at 13:55:10 UTC


;
;
; 

; external perimeters extrusion width = 0.45mm
; perimeters extrusion width = 0.45mm
; infill extrusion width = 0.45mm
; solid infill extrusion width = 0.45mm
; top infill extrusion width = 0.40mm
; first layer extrusion width = 0.42mm

M73 P0 R4
M73 Q0 S4
M201 X1000 Y1000 Z200 E5000 ; sets maximum accelerations, mm/sec^2
M203 X200 Y200 Z12 E120 ; sets maximum feedrates, mm / sec
M204 P1250 R1250 T1250 ; sets acceleration (P, T) and retract acceleration (R), mm/sec^2
M205 X8.00 Y8.00 Z0.40 E4.50 ; sets the jerk limits, mm/sec
M205 S0 T0 ; sets the minimum extruding and travel feed rate, mm/sec
M107
;TYPE:Custom
M862.3 P "MK3S" ; printer model check
M862.1 P0.4 ; nozzle diameter check
M115 U3.12.1 ; tell printer latest fw version
G90 ; use absolute coordinates
M83 ; extruder relative mode
M104 S215 ; set extruder temp
M140 S60 ; set bed temp
M190 S60 ; wait for bed temp
M109 S215 ; wait for extruder temp
G28 W ; home all without mesh bed level
G80 ; mesh bed leveling

G1 Z0.2 F720
G1 Y-3 F1000 ; go outside print area
G92 E0
G1 X60 E9 F1000 ; intro line
G1 X100 E12.5 F1000 ; intro line

G92 E0
M221 S95

; Don't change E values below. Excessive value can damage the printer.
M907 E430 ; set extruder motor current
G21 ; set units to millimeters
G90 ; use absolute coordinates
M83 ; use relative distances for extrusion
M900 K0.05 ; Filament gcode LA 1.5
M900 K30 ; Filament gcode LA 1.0
M107
;LAYER_CHANGE
;Z:0.2
;HEIGHT:0.2
;BEFORE_LAYER_CHANGE
G92 E0.0
;0.2


M73 P1 R4
M73 Q1 S4
G1 E-.8 F2100
M73 P2 R4
M73 Q2 S4
G1 Z.4 F720
;AFTER_LAYER_CHANGE
;0.2
G1 X114.369 Y99.77 F10800
G1 Z.2 F720
G1 E.8 F2100
M204 S800
;TYPE:Skirt/Brim
;WIDTH:0.42
G1 F1200
G1 X115.435 Y98.757 E.04612
G1 X116.73 Y98.433 E.04186
G1 X135.382 Y98.433 E.58482
G1 X136.8 Y98.826 E.04612
G1 X137.813 Y99.892 E.04612
G1 X138.136 Y101.187 E.04186
G1 X138.136 Y113.32 E.38041
G1 X137.744 Y114.737 E.04612
M73 P3 R4
M73 Q3 S4
G1 X136.678 Y115.75 E.04612
G1 X135.382 Y116.074 E.04186
G1 X116.73 Y116.074 E.58482
G1 X115.313 Y115.681 E.04612
G1 X114.3 Y114.615 E.04612
G1 X113.976 Y113.32 E.04186
G1 X113.976 Y101.187 E.38041
G1 X114.353 Y99.828 E.04424
M204 S1000
G1 X114.727 Y99.94 F10800
M204 S800
G1 F1200
G1 X114.745 Y99.88 E.00195
G1 X115.791 Y99.004 E.04278
G1 X116.73 Y98.81 E.03008
G1 X135.382 Y98.81 E.58482
G1 X136.689 Y99.202 E.04278
M73 P4 R4
M73 Q4 S4
G1 X137.566 Y100.247 E.04278
G1 X137.759 Y101.187 E.03008
G1 X137.759 Y113.32 E.38041
G1 X137.368 Y114.627 E.04278
G1 X136.322 Y115.503 E.04278
G1 X135.382 Y115.697 E.03008
G1 X116.73 Y115.697 E.58482
G1 X115.423 Y115.305 E.04278
G1 X114.547 Y114.26 E.04278
G1 X114.353 Y113.32 E.03008
G1 X114.353 Y101.187 E.38041
G1 X114.71 Y99.997 E.03895
M204 S1000
; printing object Rectangle_simple id:0 copy 0
;WIPE_START
M73 Q5 S4
G1 F8640
M73 P5 R4
G1 X114.745 Y99.88 E-.0282
G1 X115.791 Y99.004 E-.31505
G1 X116.73 Y98.81 E-.22155
G1 X117.576 Y98.81 E-.1952
;WIPE_END
G1 E-.04 F2100
G1 Z.6 F720
G1 X134.595 Y112.533 F10800
G1 Z.2 F720
G1 E.8 F2100
M204 S800
;TYPE:Perimeter
;WIDTH:0.419999
G1 F1200
G1 X117.517 Y112.533 E.53546
G1 X117.517 Y101.974 E.33106
G1 X134.595 Y101.974 E.53546
G1 X134.595 Y112.473 E.32918
M204 S1000
M73 Q6 S4
G1 X134.972 Y112.91 F10800
M204 S800
;TYPE:External perimeter
M73 P6 R4
G1 F1200
G1 X117.14 Y112.91 E.55911
G1 X117.14 Y101.597 E.3547
G1 X134.972 Y101.597 E.55911
G1 X134.972 Y112.85 E.35282
M204 S1000
M73 Q7 S4
G1 X134.579 Y112.835 F10800
;WIPE_START
M73 P7 R4
G1 F8640
G1 X131.681 Y112.861 E-.76
;WIPE_END
G1 E-.04 F2100
G1 Z.6 F720
G1 X133.718 Y102.087 F10800
G1 Z.2 F720
G1 E.8 F2100
M204 S800
;TYPE:Solid infill
;WIDTH:0.420866
G1 F1200
G1 X134.312 Y102.682 E.02642
G1 X134.312 Y103.216 E.0168
G1 X133.353 Y102.257 E.04263
G1 X132.819 Y102.257 E.0168
G1 X134.312 Y103.751 E.06639
G1 X134.312 Y104.285 E.0168
G1 X132.284 Y102.257 E.09014
G1 X131.75 Y102.257 E.0168
G1 X134.312 Y104.82 E.1139
G1 X134.312 Y105.354 E.0168
G1 X131.215 Y102.257 E.13765
G1 X130.681 Y102.257 E.0168
G1 X134.312 Y105.889 E.16141
G1 X134.312 Y106.423 E.0168
G1 X130.146 Y102.257 E.18516
G1 X129.612 Y102.257 E.0168
G1 X134.312 Y106.958 E.20892
G1 X134.312 Y107.492 E.0168
M73 Q8 S4
G1 X129.077 Y102.257 E.23267
G1 X128.543 Y102.257 E.0168
M73 P8 R4
G1 X134.312 Y108.027 E.25643
G1 X134.312 Y108.561 E.0168
G1 X128.008 Y102.257 E.28018
G1 X127.474 Y102.257 E.0168
G1 X134.312 Y109.096 E.30394
G1 X134.312 Y109.63 E.0168
G1 X126.939 Y102.257 E.32769
G1 X126.405 Y102.257 E.0168
G1 X134.312 Y110.165 E.35145
G1 X134.312 Y110.699 E.0168
M73 P9 R4
M73 Q9 S4
G1 X125.87 Y102.257 E.3752
G1 X125.336 Y102.257 E.0168
G1 X134.312 Y111.234 E.39896
G1 X134.312 Y111.768 E.0168
G1 X124.801 Y102.257 E.42271
G1 X124.267 Y102.257 E.0168
G1 X134.26 Y112.25 E.44413
G1 X133.725 Y112.25 E.0168
M73 Q10 S4
G1 X123.732 Y102.257 E.44413
G1 X123.198 Y102.257 E.0168
M73 P10 R4
G1 X133.191 Y112.25 E.44413
G1 X132.656 Y112.25 E.0168
G1 X122.663 Y102.257 E.44413
G1 X122.129 Y102.257 E.0168
G1 X132.122 Y112.25 E.44413
G1 X131.587 Y112.25 E.0168
M73 Q11 S4
G1 X121.594 Y102.257 E.44413
G1 X121.06 Y102.257 E.0168
M73 P11 R4
G1 X131.053 Y112.25 E.44413
G1 X130.518 Y112.25 E.0168
G1 X120.525 Y102.257 E.44413
G1 X119.991 Y102.257 E.0168
G1 X129.984 Y112.25 E.44413
G1 X129.449 Y112.25 E.0168
M73 Q12 S4
G1 X119.456 Y102.257 E.44413
G1 X118.922 Y102.257 E.0168
M73 P12 R4
G1 X128.915 Y112.25 E.44413
G1 X128.38 Y112.25 E.0168
G1 X118.387 Y102.257 E.44413
G1 X117.853 Y102.257 E.0168
G1 X127.846 Y112.25 E.44413
G1 X127.311 Y112.25 E.0168
M73 Q13 S4
G1 X117.8 Y102.739 E.42271
G1 X117.8 Y103.273 E.0168
M73 P13 R4
G1 X126.777 Y112.25 E.39895
G1 X126.242 Y112.25 E.0168
G1 X117.8 Y103.808 E.3752
G1 X117.8 Y104.342 E.0168
G1 X125.708 Y112.25 E.35144
G1 X125.173 Y112.25 E.0168
G1 X117.8 Y104.877 E.32769
G1 X117.8 Y105.411 E.0168
M73 P14 R4
M73 Q14 S4
G1 X124.639 Y112.25 E.30393
G1 X124.104 Y112.25 E.0168
G1 X117.8 Y105.946 E.28018
G1 X117.8 Y106.48 E.0168
G1 X123.57 Y112.25 E.25642
G1 X123.035 Y112.25 E.0168
G1 X117.8 Y107.015 E.23267
G1 X117.8 Y107.549 E.0168
G1 X122.501 Y112.25 E.20891
G1 X121.966 Y112.25 E.0168
G1 X117.8 Y108.084 E.18516
G1 X117.8 Y108.618 E.0168
G1 X121.432 Y112.25 E.1614
G1 X120.897 Y112.25 E.0168
M73 Q15 S4
G1 X117.8 Y109.153 E.13765
G1 X117.8 Y109.687 E.0168
M73 P15 R4
G1 X120.363 Y112.25 E.11389
G1 X119.828 Y112.25 E.0168
G1 X117.8 Y110.222 E.09014
G1 X117.8 Y110.756 E.0168
G1 X119.294 Y112.25 E.06638
G1 X118.759 Y112.25 E.0168
G1 X117.8 Y111.291 E.04263
G1 X117.8 Y111.825 E.0168
G1 X118.395 Y112.42 E.02641
M204 S1000
; stop printing object Rectangle_simple id:0 copy 0
M106 S84.15
;LAYER_CHANGE
;Z:0.4
;HEIGHT:0.2
;BEFORE_LAYER_CHANGE
G92 E0.0
;0.4


;WIPE_START
G1 F8640
G1 X117.8 Y111.825 E-.19408
G1 X117.8 Y111.291 E-.12342
G1 X118.759 Y112.25 E-.3132
G1 X119.294 Y112.25 E-.12342
G1 X119.276 Y112.232 E-.00589
;WIPE_END
G1 E-.04 F2100
G1 Z.6 F720
;AFTER_LAYER_CHANGE
;0.4
G1 X119.276 Y116.074 F10800
G1 Z.4 F720
G1 E.8 F2100
;TYPE:Skirt/Brim
;WIDTH:0.42
G1 F3000
G1 X116.73 Y116.074 E.07981
G1 X115.313 Y115.681 E.04612
G1 X114.3 Y114.615 E.04612
G1 X113.976 Y113.32 E.04186
G1 X113.976 Y101.187 E.38041
G1 X114.369 Y99.77 E.04612
G1 X115.435 Y98.757 E.04612
G1 X116.73 Y98.433 E.04186
G1 X135.382 Y98.433 E.58482
G1 X136.8 Y98.826 E.04612
G1 X137.813 Y99.892 E.04612
G1 X138.136 Y101.187 E.04186
G1 X138.136 Y113.32 E.38041
G1 X137.744 Y114.737 E.04612
M73 Q16 S4
G1 X136.678 Y115.75 E.04612
G1 X135.382 Y116.074 E.04186
G1 X119.336 Y116.074 E.50313
G1 X119.336 Y115.697 F10800
M73 P16 R4
G1 F3000
G1 X116.73 Y115.697 E.08169
G1 X115.423 Y115.305 E.04278
G1 X114.547 Y114.26 E.04278
G1 X114.353 Y113.32 E.03008
G1 X114.353 Y101.187 E.38041
G1 X114.745 Y99.88 E.04278
G1 X115.791 Y99.004 E.04278
G1 X116.73 Y98.81 E.03008
G1 X135.382 Y98.81 E.58482
G1 X136.689 Y99.202 E.04278
G1 X137.566 Y100.247 E.04278
G1 X137.759 Y101.187 E.03008
G1 X137.759 Y113.32 E.38041
G1 X137.368 Y114.627 E.04278
G1 X136.322 Y115.503 E.04278
G1 X135.382 Y115.697 E.03008
G1 X119.396 Y115.697 E.50124
; printing object Rectangle_simple id:0 copy 0
;WIPE_START
G1 F8640
G1 X116.73 Y115.697 E-.61547
G1 X116.131 Y115.517 E-.14453
;WIPE_END
G1 E-.04 F2100
G1 Z.8 F720
G1 X134.75 Y112.688 F10800
G1 Z.4 F720
G1 E.8 F2100
M204 S800
;TYPE:Perimeter
;WIDTH:0.449999
G1 F2700
G1 X117.362 Y112.688 E.58855
G1 X117.362 Y101.819 E.36789
M73 P17 R4
M73 Q17 S4
G1 X134.75 Y101.819 E.58855
G1 X134.75 Y112.628 E.36586
M204 S1000
G1 X135.157 Y113.095 F10800
M204 S800
;TYPE:External perimeter
G1 F1500
G1 X116.955 Y113.095 E.61611
G1 X116.955 Y101.412 E.39545
G1 X135.157 Y101.412 E.61611
G1 X135.157 Y113.035 E.39342
M204 S1000
M73 P18 R4
M73 Q18 S4
G1 X134.765 Y113.019 F10800
;WIPE_START
G1 F8640
G1 X131.866 Y113.046 E-.76
;WIPE_END
G1 E-.04 F2100
G1 Z.8 F720
G1 X133.798 Y112.566 F10800
G1 Z.4 F720
G1 E.8 F2100
;TYPE:Solid infill
;WIDTH:0.453179
G1 F3467
G1 X134.445 Y111.919 E.03119
G1 X134.445 Y111.339 E.01979
G1 X133.401 Y112.383 E.05034
G1 X132.821 Y112.383 E.01979
G1 X134.445 Y110.759 E.07833
G1 X134.445 Y110.179 E.01979
G1 X132.241 Y112.383 E.10632
G1 X131.661 Y112.383 E.01979
G1 X134.445 Y109.598 E.13431
G1 X134.445 Y109.018 E.01979
G1 X131.081 Y112.383 E.1623
G1 X130.5 Y112.383 E.01979
G1 X134.445 Y108.438 E.19029
G1 X134.445 Y107.858 E.01979
G1 X129.92 Y112.383 E.21828
G1 X129.34 Y112.383 E.01979
G1 X134.445 Y107.278 E.24627
G1 X134.445 Y106.697 E.01979
G1 X128.76 Y112.383 E.27426
G1 X128.18 Y112.383 E.01979
G1 X134.445 Y106.117 E.30225
G1 X134.445 Y105.537 E.01979
G1 X127.599 Y112.383 E.33025
G1 X127.019 Y112.383 E.01979
M73 Q19 S4
G1 X134.445 Y104.957 E.35824
G1 X134.445 Y104.377 E.01979
M73 P19 R4
G1 X126.439 Y112.383 E.38623
G1 X125.859 Y112.383 E.01979
G1 X134.445 Y103.797 E.41422
G1 X134.445 Y103.216 E.01979
G1 X125.279 Y112.383 E.44221
G1 X124.699 Y112.383 E.01979
G1 X134.445 Y102.636 E.4702
G1 X134.445 Y102.125 E.01745
G1 X134.376 Y102.125 E.00234
G1 X124.118 Y112.383 E.49488
G1 X123.538 Y112.383 E.01979
G1 X133.796 Y102.125 E.49488
G1 X133.216 Y102.125 E.01979
G1 X122.958 Y112.383 E.49488
G1 X122.378 Y112.383 E.01979
M73 P19 R3
G1 X132.636 Y102.125 E.49488
G1 X132.056 Y102.125 E.01979
M73 Q19 S3
G1 X121.798 Y112.383 E.49488
G1 X121.217 Y112.383 E.01979
M73 Q20 S3
G1 X131.475 Y102.125 E.49488
G1 X130.895 Y102.125 E.01979
M73 P20 R3
G1 X120.637 Y112.383 E.49488
G1 X120.057 Y112.383 E.01979
G1 X130.315 Y102.125 E.49488
G1 X129.735 Y102.125 E.01979
G1 X119.477 Y112.383 E.49488
G1 X118.897 Y112.383 E.01979
G1 X129.155 Y102.125 E.49488
G1 X128.574 Y102.125 E.01979
G1 X118.316 Y112.383 E.49488
G1 X117.736 Y112.383 E.01979
G1 X127.994 Y102.125 E.49488
G1 X127.414 Y102.125 E.01979
G1 X117.668 Y111.871 E.47019
G1 X117.668 Y111.291 E.01979
G1 X126.834 Y102.125 E.4422
G1 X126.254 Y102.125 E.01979
M73 Q21 S3
G1 X117.668 Y110.71 E.41421
G1 X117.668 Y110.13 E.01979
M73 P21 R3
G1 X125.673 Y102.125 E.38622
G1 X125.093 Y102.125 E.01979
G1 X117.668 Y109.55 E.35823
G1 X117.668 Y108.97 E.01979
G1 X124.513 Y102.125 E.33024
G1 X123.933 Y102.125 E.01979
G1 X117.668 Y108.39 E.30225
G1 X117.668 Y107.809 E.01979
G1 X123.353 Y102.125 E.27426
G1 X122.772 Y102.125 E.01979
G1 X117.668 Y107.229 E.24627
G1 X117.668 Y106.649 E.01979
G1 X122.192 Y102.125 E.21828
G1 X121.612 Y102.125 E.01979
G1 X117.668 Y106.069 E.19029
G1 X117.668 Y105.489 E.01979
G1 X121.032 Y102.125 E.1623
G1 X120.452 Y102.125 E.01979
G1 X117.668 Y104.908 E.13431
G1 X117.668 Y104.328 E.01979
G1 X119.871 Y102.125 E.10632
G1 X119.291 Y102.125 E.01979
G1 X117.668 Y103.748 E.07833
G1 X117.668 Y103.168 E.01979
G1 X118.711 Y102.125 E.05033
G1 X118.131 Y102.125 E.01979
G1 X117.485 Y102.771 E.03118
; stop printing object Rectangle_simple id:0 copy 0
M106 S170.85
;LAYER_CHANGE
;Z:0.6
;HEIGHT:0.2
;BEFORE_LAYER_CHANGE
G92 E0.0
;0.6


;WIPE_START
G1 F8640
G1 X118.131 Y102.125 E-.21106
G1 X118.711 Y102.125 E-.13397
G1 X117.668 Y103.168 E-.3407
G1 X117.668 Y103.489 E-.07427
;WIPE_END
G1 E-.04 F2100
G1 Z.8 F720
;AFTER_LAYER_CHANGE
;0.6
G1 X113.976 Y103.489 F10800
M73 Q22 S3
G1 Z.6 F720
G1 E.8 F2100
;TYPE:Skirt/Brim
;WIDTH:0.42
G1 F3000
G1 X113.976 Y101.187 E.07219
G1 X114.369 Y99.77 E.04612
M73 P22 R3
G1 X115.435 Y98.757 E.04612
G1 X116.73 Y98.433 E.04186
G1 X135.382 Y98.433 E.58482
G1 X136.8 Y98.826 E.04612
G1 X137.813 Y99.892 E.04612
G1 X138.136 Y101.187 E.04186
G1 X138.136 Y113.32 E.38041
G1 X137.744 Y114.737 E.04612
G1 X136.678 Y115.75 E.04612
G1 X135.382 Y116.074 E.04186
G1 X116.73 Y116.074 E.58482
G1 X115.313 Y115.681 E.04612
G1 X114.3 Y114.615 E.04612
G1 X113.976 Y113.32 E.04186
G1 X113.976 Y103.549 E.30634
G1 X114.353 Y103.549 F10800
G1 F3000
G1 X114.353 Y101.187 E.07407
G1 X114.745 Y99.88 E.04278
G1 X115.791 Y99.004 E.04278
G1 X116.73 Y98.81 E.03008
G1 X135.382 Y98.81 E.58482
G1 X136.689 Y99.202 E.04278
G1 X137.566 Y100.247 E.04278
G1 X137.759 Y101.187 E.03008
G1 X137.759 Y113.32 E.38041
G1 X137.368 Y114.627 E.04278
M73 Q23 S3
G1 X136.322 Y115.503 E.04278
G1 X135.382 Y115.697 E.03008
G1 X116.73 Y115.697 E.58482
G1 X115.423 Y115.305 E.04278
M73 P23 R3
G1 X114.547 Y114.26 E.04278
G1 X114.353 Y113.32 E.03008
G1 X114.353 Y103.609 E.30446
; printing object Rectangle_simple id:0 copy 0
;WIPE_START
G1 F8640
G1 X114.353 Y101.187 E-.55933
G1 X114.603 Y100.355 E-.20067
;WIPE_END
G1 E-.04 F2100
G1 Z1 F720
G1 X134.75 Y112.688 F10800
G1 Z.6 F720
G1 E.8 F2100
M204 S800
;TYPE:Perimeter
;WIDTH:0.449999
G1 F2700
G1 X117.362 Y112.688 E.58855
G1 X117.362 Y101.819 E.36789
G1 X134.75 Y101.819 E.58855
G1 X134.75 Y112.628 E.36586
M204 S1000
G1 X135.157 Y113.095 F10800
M204 S800
;TYPE:External perimeter
G1 F1500
G1 X116.955 Y113.095 E.61611
G1 X116.955 Y101.412 E.39545
M73 P24 R3
M73 Q24 S3
G1 X135.157 Y101.412 E.61611
G1 X135.157 Y113.035 E.39342
M204 S1000
G1 X134.765 Y113.019 F10800
;WIPE_START
G1 F8640
G1 X131.866 Y113.046 E-.76
;WIPE_END
G1 E-.04 F2100
G1 Z1 F720
G1 X133.798 Y101.941 F10800
G1 Z.6 F720
G1 E.8 F2100
;TYPE:Solid infill
;WIDTH:0.453179
G1 F3500
G1 X134.445 Y102.588 E.03119
G1 X134.445 Y103.168 E.01979
G1 X133.401 Y102.125 E.05034
G1 X132.821 Y102.125 E.01979
M73 Q25 S3
G1 X134.445 Y103.748 E.07833
G1 X134.445 Y104.328 E.01979
G1 X132.241 Y102.125 E.10632
G1 X131.661 Y102.125 E.01979
G1 X134.445 Y104.909 E.13431
M73 P25 R3
G1 X134.445 Y105.489 E.01979
G1 X131.081 Y102.125 E.1623
G1 X130.5 Y102.125 E.01979
G1 X134.445 Y106.069 E.19029
G1 X134.445 Y106.649 E.01979
G1 X129.92 Y102.125 E.21828
G1 X129.34 Y102.125 E.01979
G1 X134.445 Y107.229 E.24627
G1 X134.445 Y107.81 E.01979
G1 X128.76 Y102.125 E.27426
G1 X128.18 Y102.125 E.01979
G1 X134.445 Y108.39 E.30225
G1 X134.445 Y108.97 E.01979
G1 X127.599 Y102.125 E.33025
G1 X127.019 Y102.125 E.01979
G1 X134.445 Y109.55 E.35824
G1 X134.445 Y110.13 E.01979
G1 X126.439 Y102.125 E.38623
G1 X125.859 Y102.125 E.01979
G1 X134.445 Y110.711 E.41422
G1 X134.445 Y111.291 E.01979
G1 X125.279 Y102.125 E.44221
G1 X124.699 Y102.125 E.01979
G1 X134.445 Y111.871 E.4702
G1 X134.445 Y112.383 E.01745
M73 Q26 S3
G1 X134.376 Y112.383 E.00234
G1 X124.118 Y102.125 E.49488
G1 X123.538 Y102.125 E.01979
M73 P26 R3
G1 X133.796 Y112.383 E.49488
G1 X133.216 Y112.383 E.01979
G1 X122.958 Y102.125 E.49488
G1 X122.378 Y102.125 E.01979
G1 X132.636 Y112.383 E.49488
G1 X132.056 Y112.383 E.01979
G1 X121.798 Y102.125 E.49488
G1 X121.217 Y102.125 E.01979
G1 X131.475 Y112.383 E.49488
G1 X130.895 Y112.383 E.01979
G1 X120.637 Y102.125 E.49488
G1 X120.057 Y102.125 E.01979
G1 X130.315 Y112.383 E.49488
G1 X129.735 Y112.383 E.01979
G1 X119.477 Y102.125 E.49488
G1 X118.897 Y102.125 E.01979
M73 Q27 S3
G1 X129.155 Y112.383 E.49488
G1 X128.574 Y112.383 E.01979
M73 P27 R3
G1 X118.316 Y102.125 E.49488
G1 X117.736 Y102.125 E.01979
G1 X127.994 Y112.383 E.49488
G1 X127.414 Y112.383 E.01979
G1 X117.668 Y102.636 E.47019
G1 X117.668 Y103.216 E.01979
G1 X126.834 Y112.383 E.4422
G1 X126.254 Y112.383 E.01979
G1 X117.668 Y103.797 E.41421
G1 X117.668 Y104.377 E.01979
G1 X125.673 Y112.383 E.38622
G1 X125.093 Y112.383 E.01979
G1 X117.668 Y104.957 E.35823
G1 X117.668 Y105.537 E.01979
G1 X124.513 Y112.383 E.33024
